src/lib/packages/icons/src/assets/filled/phone-office.svg

<svg xmlns="http://www.w3.org/2000/svg" width="24" height="24" fill="none"><path fill="currentColor" d="M6.25 19c0 .572.147 1.104.403 1.566A.295.295 0 0 1 6.39 21H5c-2 0-3-1-3-3V7c0-1.44.523-2.365 1.562-2.761.137-.052.438-.005.438.264V16.5c0 1.46.86 2.39 2.25 2.49V19Zm4.25.75h-1a.75.75 0 0 1-.75-.75v-1h.75c1 0 1.5-.5 1.5-1.5v-13c0-1-.5-1.5-1.5-1.5h-3C5.5 2 5 2.5 5 3.5v13c0 1 .5 1.5 1.5 1.5h.75v1c0 1.241 1.01 2.25 2.25 2.25h1a.75.75 0 0 1 .75.75.75.75 0 0 0 1.5 0c0-1.241-1.01-2.25-2.25-2.25ZM22 7v11c0 2-1 3-3 3h-5.205a.294.294 0 0 1-.274-.193 3.242 3.242 0 0 0-2.811-2.047c.82-.38 1.29-1.18 1.29-2.26V4.3a.3.3 0 0 1 .3-.3H19c2 0 3 1 3 3Zm-6 10a1 1 0 1 0-2 0 1 1 0 0 0 2 0Zm0-3a1 1 0 1 0-2 0 1 1 0 0 0 2 0Zm3 3a1 1 0 1 0-2 0 1 1 0 0 0 2 0Zm0-3a1 1 0 1 0-2 0 1 1 0 0 0 2 0Zm.5-4.5A1.5 1.5 0 0 0 18 8h-3a1.5 1.5 0 0 0 0 3h3a1.5 1.5 0 0 0 1.5-1.5Z"/></svg>

<svg width="24" height="24" viewBox="0 0 24 24" fill="none" xmlns="http://www.w3.org/2000/svg">
<path d="M6.25 19C6.25 19.572 6.39708 20.1039 6.65308 20.5659C6.76108 20.7619 6.61389 21 6.38989 21H5C3 21 2 20 2 18V7C2 5.56 2.52301 4.63501 3.56201 4.23901C3.69901 4.18701 4 4.23393 4 4.50293V16.5C4 17.96 4.86 18.89 6.25 18.99V19ZM10.5 19.75H9.5C9.087 19.75 8.75 19.414 8.75 19V18H9.5C10.5 18 11 17.5 11 16.5V3.5C11 2.5 10.5 2 9.5 2H6.5C5.5 2 5 2.5 5 3.5V16.5C5 17.5 5.5 18 6.5 18H7.25V19C7.25 20.241 8.26 21.25 9.5 21.25H10.5C10.913 21.25 11.25 21.586 11.25 22C11.25 22.414 11.586 22.75 12 22.75C12.414 22.75 12.75 22.414 12.75 22C12.75 20.759 11.74 19.75 10.5 19.75ZM22 7V18C22 20 21 21 19 21H13.7949C13.6709 21 13.566 20.9219 13.521 20.8069C13.07 19.6659 11.989 18.836 10.71 18.76C11.53 18.38 12 17.58 12 16.5V4.30005C12 4.13405 12.134 4 12.3 4H19C21 4 22 5 22 7ZM16 17C16 16.448 15.552 16 15 16C14.448 16 14 16.448 14 17C14 17.552 14.448 18 15 18C15.552 18 16 17.552 16 17ZM16 14C16 13.448 15.552 13 15 13C14.448 13 14 13.448 14 14C14 14.552 14.448 15 15 15C15.552 15 16 14.552 16 14ZM19 17C19 16.448 18.552 16 18 16C17.448 16 17 16.448 17 17C17 17.552 17.448 18 18 18C18.552 18 19 17.552 19 17ZM19 14C19 13.448 18.552 13 18 13C17.448 13 17 13.448 17 14C17 14.552 17.448 15 18 15C18.552 15 19 14.552 19 14ZM19.5 9.5C19.5 8.672 18.828 8 18 8H15C14.172 8 13.5 8.672 13.5 9.5C13.5 10.328 14.172 11 15 11H18C18.828 11 19.5 10.328 19.5 9.5Z" fill="currentColor"/>
</svg>
